build/images/user-2.svg

<svg width="16" height="20" viewBox="0 0 16 20" fill="none" xmlns="http://www.w3.org/2000/svg">
<mask id="path-1-inside-1" fill="white">
<path fill-rule="evenodd" clip-rule="evenodd" d="M8 10C10.7614 10 13 7.76142 13 5C13 2.23858 10.7614 0 8 0C5.23858 0 3 2.23858 3 5C3 7.76142 5.23858 10 8 10ZM8 10C12.4183 10 16 13.5817 16 18V20H0V18C0 13.5817 3.58172 10 8 10Z"/>
</mask>
<path d="M16 20V21H17V20H16ZM0 20H-1V21H0V20ZM12 5C12 7.20914 10.2091 9 8 9V11C11.3137 11 14 8.31371 14 5H12ZM8 1C10.2091 1 12 2.79086 12 5H14C14 1.68629 11.3137 -1 8 -1V1ZM4 5C4 2.79086 5.79086 1 8 1V-1C4.68629 -1 2 1.68629 2 5H4ZM8 9C5.79086 9 4 7.20914 4 5H2C2 8.31371 4.68629 11 8 11V9ZM8 11C11.866 11 15 14.134 15 18H17C17 13.0294 12.9706 9 8 9V11ZM15 18V20H17V18H15ZM16 19H0V21H16V19ZM1 20V18H-1V20H1ZM1 18C1 14.134 4.13401 11 8 11V9C3.02944 9 -1 13.0294 -1 18H1Z" fill="#2C2B2B" mask="url(#path-1-inside-1)"/>
</svg>

<svg width="16" height="20" viewBox="0 0 16 20" fill="none" xmlns="http://www.w3.org/2000/svg"><mask id="path-1-inside-1" fill="#fff"><path fill-rule="evenodd" clip-rule="evenodd" d="M8 10A5 5 0 108 0a5 5 0 000 10zm0 0a8 8 0 018 8v2H0v-2a8 8 0 018-8z"/></mask><path d="M16 20v1h1v-1h-1zM0 20h-1v1h1v-1zM12 5a4 4 0 01-4 4v2a6 6 0 006-6h-2zM8 1a4 4 0 014 4h2a6 6 0 00-6-6v2zM4 5a4 4 0 014-4v-2a6 6 0 00-6 6h2zm4 4a4 4 0 01-4-4H2a6 6 0 006 6V9zm0 2a7 7 0 017 7h2a9 9 0 00-9-9v2zm7 7v2h2v-2h-2zm1 1H0v2h16v-2zM1 20v-2h-2v2h2zm0-2a7 7 0 017-7V9a9 9 0 00-9 9h2z" fill="#2C2B2B" mask="url(#path-1-inside-1)"/></svg>
